X: 0
T: St. Finbar
Z: H. F. Hemy and J. G. Walton
Z: Copyright © 2003 by Douglas D. Anderson
Z: Released To The Public Domain
L: 1/4
M: none
Q: 1/4=368
V: P1 name="Staff"
%%MIDI program 1 19
K: G
[V: P1]  B2 A2 G2 | (G2 F2) G2 | (A2 E2) F2 | G6 | G2 F2 E2 | D4 G2 | (A2 B2) A2 | G6 | c2 c2 c2 | B4 B2 | A4 A2 | B6 | B2 A2 G2 | E4 G2 | A4 A2 | G6|]
w: O quick- ly come,_ dread Judge_ of all, For, aw- ful though thine ad-_ vent be; All sha- dows from the truth will fall, And false- hood die, in sight of thee.

